packages/components/icon/src/assets/icons/link.svg

<svg width="24" height="24" viewBox="0 0 24 24" fill="none" xmlns="http://www.w3.org/2000/svg">
<path fill-rule="evenodd" clip-rule="evenodd" d="M10.4167 13.447C10.8573 13.8661 10.8573 14.5539 10.4167 14.973C9.99762 15.392 9.30988 15.392 8.89079 14.973C6.79535 12.8775 6.79535 9.47107 8.89079 7.37562L12.6948 3.57158C14.7903 1.47614 18.1967 1.47614 20.2922 3.57158C22.3876 5.66703 22.3876 9.07347 20.2922 11.1689L18.691 12.7701C18.7018 11.8889 18.5621 11.0077 18.2612 10.1696L18.7663 9.65375C20.0343 8.39648 20.0343 6.35477 18.7663 5.0975C17.509 3.82949 15.4673 3.82949 14.21 5.0975L10.4167 8.89079C9.14869 10.1481 9.14869 12.1898 10.4167 13.447ZM13.447 8.89079C13.8661 8.4717 14.5539 8.4717 14.973 8.89079C17.0684 10.9862 17.0684 14.3927 14.973 16.4881L11.1689 20.2922C9.07347 22.3876 5.66703 22.3876 3.57158 20.2922C1.47614 18.1967 1.47614 14.7903 3.57158 12.6948L5.17272 11.0937C5.16197 11.9749 5.30167 12.856 5.60255 13.7049L5.0975 14.21C3.82949 15.4673 3.82949 17.509 5.0975 18.7663C6.35477 20.0343 8.39648 20.0343 9.65375 18.7663L13.447 14.973C14.7151 13.7157 14.7151 11.674 13.447 10.4167C13.0065 9.99762 13.0065 9.30988 13.447 8.89079Z" fill="currentColor"/>
</svg>

<svg viewBox="0 0 24 24" fill="none" xmlns="http://www.w3.org/2000/svg"><path fill-rule="evenodd" clip-rule="evenodd" d="M10.417 13.447c.44.42.44 1.107 0 1.526a1.083 1.083 0 0 1-1.526 0 5.377 5.377 0 0 1 0-7.597l3.804-3.804a5.377 5.377 0 0 1 7.597 0 5.377 5.377 0 0 1 0 7.597l-1.601 1.601a7.421 7.421 0 0 0-.43-2.6l.505-.516a3.204 3.204 0 0 0 0-4.556 3.204 3.204 0 0 0-4.556 0L10.417 8.89a3.204 3.204 0 0 0 0 4.556Zm3.03-4.556c.42-.42 1.107-.42 1.526 0a5.377 5.377 0 0 1 0 7.597l-3.804 3.804a5.377 5.377 0 0 1-7.597 0 5.377 5.377 0 0 1 0-7.597l1.6-1.601c-.01.88.13 1.762.43 2.61l-.505.506a3.204 3.204 0 0 0 0 4.556 3.204 3.204 0 0 0 4.557 0l3.793-3.793a3.204 3.204 0 0 0 0-4.556 1.046 1.046 0 0 1 0-1.526Z" fill="currentColor"/></svg>
